Adwaita++-Light/panel/16/cisco-tray-connected.svg

<svg height="16" width="16" xmlns="http://www.w3.org/2000/svg">
  <path d="m8 1a7 7 0 0 0 -6.2128906 3.7871094 7 7 0 0 1 3.2128906-.7871094 7 7 0 0 1 1.2597656.1171875 7 7 0 0 1 1.8476563-3.1113281 7 7 0 0 0 -.1074219-.0058594zm1.4726562.1601562a6 6 0 0 0 -2.2421874 3.2148438 7 7 0 0 1 3.9160152 3.3027344c.509687-.4166335 1.147631-.6777344 1.853516-.6777344.76991 0 1.46211.3066872 1.990234.7929688a7 7 0 0 0 -5.5175778-6.6328126zm-4.4726562 3.8398438a6 6 0 0 0 -3.796875 1.359375 7 7 0 0 0 -.203125 1.640625 7 7 0 0 0 7 7 7 7 0 0 0 1-.085938v-3.185546a7 7 0 0 1 -3-5.728516 7 7 0 0 1 .0664062-.9003906 6 6 0 0 0 -1.0664062-.0996094zm2.0351562.3632812a6 6 0 0 0 -.0351562.6367188 6 6 0 0 0 2.1152344 4.556641c.1646755-.326287.4943269-.556602.8847656-.556641h.013672c.006567-.5464497.168593-1.056653.429687-1.5019531a6 6 0 0 0 -3.4082028-3.1347657zm5.9648438 2.6367188c-1.108 0-2 .9112496-2 2.03125v.96875h-1v4h6v-4h-1v-.96875c0-1.1200004-.892-2.03125-2-2.03125zm0 1c.554 0 1 .4419996 1 1v1h-2v-1c0-.5580004.446-1 1-1z" fill="#444"/>
</svg>

<svg xmlns="http://www.w3.org/2000/svg" width="16" height="16" version="1.1">
 <defs>
  <style id="current-color-scheme" type="text/css">
   .ColorScheme-Text { color:#444444; } .ColorScheme-Highlight { color:#4285f4; }
  </style>
 </defs>
 <path style="fill:currentColor" class="ColorScheme-Text" d="M 8 1 A 7 7 0 0 0 1.7871094 4.7871094 A 7 7 0 0 1 5 4 A 7 7 0 0 1 6.2597656 4.1171875 A 7 7 0 0 1 8.1074219 1.0058594 A 7 7 0 0 0 8 1 z M 9.4726562 1.1601562 A 6 6 0 0 0 7.2304688 4.375 A 7 7 0 0 1 11.146484 7.6777344 C 11.656171 7.2611009 12.294115 7 13 7 C 13.76991 7 14.46211 7.3066872 14.990234 7.7929688 A 7 7 0 0 0 9.4726562 1.1601562 z M 5 5 A 6 6 0 0 0 1.203125 6.359375 A 7 7 0 0 0 1 8 A 7 7 0 0 0 8 15 A 7 7 0 0 0 9 14.914062 L 9 11.728516 A 7 7 0 0 1 6 6 A 7 7 0 0 1 6.0664062 5.0996094 A 6 6 0 0 0 5 5 z M 7.0351562 5.3632812 A 6 6 0 0 0 7 6 A 6 6 0 0 0 9.1152344 10.556641 C 9.2799099 10.230354 9.6095613 10.000039 10 10 L 10.013672 10 C 10.020239 9.4535503 10.182265 8.943347 10.443359 8.4980469 A 6 6 0 0 0 7.0351562 5.3632812 z M 13 8 C 11.892 8 11 8.9112496 11 10.03125 L 11 11 L 10 11 L 10 15 L 16 15 L 16 11 L 15 11 L 15 10.03125 C 15 8.9112496 14.108 8 13 8 z M 13 9 C 13.554 9 14 9.4419996 14 10 L 14 11 L 12 11 L 12 10 C 12 9.4419996 12.446 9 13 9 z"/>
</svg>
